src/assets/img/providers/betsolutions-g.svg

<svg width="140" height="22" viewBox="0 0 140 22" fill="none" xmlns="http://www.w3.org/2000/svg">
<path fill-rule="evenodd" clip-rule="evenodd" d="M13.6126 6.30972C13.6102 6.25531 13.6362 6.22811 13.6906 6.22811C16.3377 6.20682 18.8701 6.62908 21.2877 7.49488C21.3132 7.50327 21.3404 7.5043 21.3664 7.49786C21.3924 7.49142 21.416 7.47777 21.4345 7.45848C21.4531 7.43919 21.4658 7.41505 21.4712 7.38884C21.4766 7.36264 21.4745 7.33543 21.4652 7.31037C19.7655 3.03101 15.8126 0.234884 11.0613 0.249077C8.75484 0.253808 6.56194 1.03682 4.48258 2.59811C4.40131 2.65886 4.3384 2.74074 4.30082 2.83468C4.26325 2.92862 4.25247 3.03096 4.26968 3.13037C4.70731 5.6994 5.61333 8.15962 6.98774 10.511C7.01533 10.5582 7.02335 10.6144 7.01008 10.6674C6.99682 10.7205 6.96333 10.7662 6.91677 10.7949L6.18581 11.2384C6.16096 11.2539 6.13328 11.2642 6.10439 11.2688C6.07551 11.2734 6.046 11.2722 6.01758 11.2652C5.98917 11.2583 5.96242 11.2458 5.93891 11.2284C5.9154 11.211 5.89559 11.1891 5.88065 11.1639C4.53935 8.90478 3.66645 6.57822 3.26194 4.18424C3.22645 3.9666 3.14129 3.94413 3.00645 4.11682C0.401936 7.4523 -0.293548 11.4088 1.37065 15.2055C2.58419 17.978 4.62688 19.9403 7.49871 21.0923C7.56504 21.1191 7.63742 21.1273 7.70806 21.116C7.7787 21.1048 7.84494 21.0745 7.89968 21.0284C10.0713 19.2211 11.7852 17.2009 13.0413 14.9678C13.1028 14.859 13.1903 14.8341 13.3039 14.8933L14.0952 15.3049C14.2158 15.3688 14.2418 15.4598 14.1732 15.5781C12.9408 17.7545 11.3168 19.6978 9.30129 21.4081C9.28256 21.4242 9.26891 21.4455 9.262 21.4692C9.25508 21.4929 9.2552 21.5181 9.26234 21.5418C9.26947 21.5655 9.28332 21.5865 9.3022 21.6025C9.32108 21.6184 9.34419 21.6286 9.36871 21.6317C14.3435 22.2136 18.0859 20.4512 20.5958 16.3446C21.9631 14.1091 22.3854 11.6867 21.8626 9.07747C21.8548 9.03934 21.8374 9.00374 21.812 8.97396C21.7866 8.94419 21.7539 8.9212 21.7171 8.90714C19.141 7.95144 16.4903 7.49725 13.7652 7.54456C13.7479 7.54502 13.7308 7.54199 13.7147 7.53564C13.6986 7.52929 13.6838 7.51975 13.6713 7.50756C13.6588 7.49537 13.6487 7.48077 13.6417 7.46459C13.6347 7.44841 13.6308 7.43097 13.6303 7.41327L13.6126 6.30972ZM31.6313 6.98386L31.4219 7.09031C31.2492 7.18021 31.1641 7.12816 31.1664 6.93418L31.1735 3.4887C31.1735 3.45795 31.1582 3.44257 31.1274 3.44257L28.7003 3.45676C28.6199 3.45676 28.5797 3.49698 28.5797 3.57741L28.5761 16.1245C28.5761 16.2475 28.6376 16.3114 28.7606 16.3161C29.52 16.3421 30.2829 16.3303 31.0494 16.2806C31.2954 16.2641 31.5402 16.2605 31.7839 16.27C33.4374 16.341 35.2234 16.3516 37.1419 16.3019C37.3945 16.2954 37.6345 16.1909 37.8109 16.0106C37.9872 15.8303 38.0859 15.5885 38.0858 15.3368L38.0894 7.89225C38.0894 7.62686 37.9836 7.37234 37.7952 7.18469C37.6069 6.99703 37.3515 6.8916 37.0852 6.8916H32.011C31.8761 6.8916 31.7496 6.92236 31.6313 6.98386ZM31.1771 10.5181C31.1818 10.0378 31.3935 9.70193 31.8123 9.51031C31.9666 9.44019 32.1347 9.40389 32.3055 9.40386H35.3181C35.3651 9.40386 35.4102 9.42293 35.4435 9.45687C35.4768 9.4908 35.4955 9.53683 35.4955 9.58483V13.559C35.4955 13.6268 35.4686 13.6918 35.4207 13.7397C35.3727 13.7876 35.3078 13.8145 35.24 13.8145L31.3971 13.8074C31.3359 13.8074 31.2773 13.7831 31.234 13.7399C31.1907 13.6966 31.1664 13.6379 31.1664 13.5768C31.1617 12.5667 31.1653 11.5471 31.1771 10.5181ZM51.449 9.40031L50.7464 9.40386C50.6985 9.40386 50.6524 9.3848 50.6185 9.35086C50.5845 9.31692 50.5655 9.27089 50.5655 9.22289V7.13999C50.5655 6.98623 50.6424 6.90698 50.7961 6.90225L51.4987 6.88806C51.6359 6.88569 51.7045 6.8159 51.7045 6.6787L51.7116 3.55257C51.7116 3.52588 51.7219 3.50023 51.7405 3.48103C51.759 3.46183 51.7843 3.45059 51.811 3.44967L54.2026 3.44257C54.2289 3.44257 54.2542 3.45304 54.2728 3.47167C54.2915 3.4903 54.3019 3.51558 54.3019 3.54193L54.3055 6.6858C54.3055 6.73944 54.3268 6.79088 54.3647 6.82881C54.4026 6.86675 54.4541 6.88806 54.5077 6.88806L55.6432 6.8916C55.8372 6.8916 55.9342 6.98859 55.9342 7.18257L55.9271 9.11999C55.9262 9.19465 55.8962 9.26594 55.8437 9.31841C55.7913 9.37088 55.7205 9.40031 55.6468 9.40031L54.5645 9.40741C54.3918 9.40741 54.3055 9.49494 54.3055 9.66999L54.3019 13.6052C54.3019 13.7424 54.3705 13.8098 54.5077 13.8074L55.6077 13.8039C55.8277 13.8039 55.9377 13.9139 55.9377 14.1339L55.9235 15.9577C55.9212 16.2014 55.7982 16.3232 55.5545 16.3232H52.691C52.4303 16.3232 52.1803 16.2193 51.9959 16.0343C51.8116 15.8493 51.7081 15.5984 51.7081 15.3368V9.65935C51.7081 9.48666 51.6217 9.40031 51.449 9.40031ZM83.8706 13.7897C83.7618 13.8204 83.653 13.8311 83.5442 13.8216C83.3999 13.8098 83.3277 13.7329 83.3277 13.591V3.55612C83.3277 3.48042 83.2899 3.44257 83.2142 3.44257L80.8829 3.44612C80.7883 3.44848 80.741 3.49698 80.741 3.5916L80.7374 15.3474C80.7374 15.6053 80.8399 15.8526 81.0222 16.0349C81.2045 16.2172 81.4518 16.3197 81.7097 16.3197L83.9523 16.3232C84.0895 16.3256 84.1581 16.2582 84.1581 16.121L84.1829 14.0274C84.1853 13.8098 84.0812 13.7305 83.8706 13.7897ZM97.2232 9.40031L96.6093 9.40386C96.4296 9.40623 96.3397 9.31634 96.3397 9.13418V7.13999C96.3397 6.98623 96.4165 6.90698 96.5703 6.90225L97.2729 6.88806C97.4101 6.88332 97.4787 6.81236 97.4787 6.67515L97.4858 3.55257C97.4858 3.52528 97.4963 3.49911 97.5149 3.47981C97.5335 3.46051 97.5588 3.44967 97.5851 3.44967L99.9768 3.44257C100.003 3.44257 100.028 3.45304 100.047 3.47167C100.066 3.4903 100.076 3.51558 100.076 3.54193L100.08 6.63967C100.08 6.80289 100.161 6.88451 100.325 6.88451L101.421 6.8916C101.613 6.89397 101.707 6.99096 101.705 7.18257L101.698 9.11999C101.698 9.30687 101.604 9.40031 101.417 9.40031L100.339 9.40741C100.166 9.40741 100.08 9.49494 100.08 9.66999L100.076 13.6052C100.076 13.7424 100.145 13.811 100.282 13.811L101.407 13.8039C101.61 13.8039 101.712 13.9056 101.712 14.109L101.694 15.9577C101.692 16.2014 101.569 16.3232 101.325 16.3232H98.5113C98.2374 16.3232 97.9748 16.2148 97.7811 16.0218C97.5875 15.8288 97.4787 15.5671 97.4787 15.2942L97.4822 9.65935C97.4822 9.48666 97.3959 9.40031 97.2232 9.40031ZM103.373 3.44604H105.409C105.562 3.44604 105.686 3.56995 105.686 3.72281V5.66733C105.686 5.82019 105.562 5.9441 105.409 5.9441H103.373C103.22 5.9441 103.096 5.82019 103.096 5.66733V3.72281C103.096 3.56995 103.22 3.44604 103.373 3.44604ZM42.6952 12.8671C42.6531 12.867 42.6126 12.8833 42.5822 12.9123C42.5518 12.9414 42.5338 12.9812 42.5319 13.0232L42.5106 13.6477C42.5102 13.6685 42.5138 13.6892 42.5212 13.7086C42.5287 13.7279 42.5398 13.7456 42.5541 13.7605C42.5683 13.7753 42.5853 13.7871 42.604 13.7952C42.6227 13.8033 42.6429 13.8074 42.6632 13.8074L49.3058 13.8109C49.4004 13.8109 49.4466 13.8571 49.4442 13.9493L49.4335 16.1387C49.4335 16.1876 49.4141 16.2346 49.3795 16.2692C49.3449 16.3038 49.298 16.3232 49.249 16.3232H40.9955C40.7132 16.3232 40.4424 16.2114 40.2428 16.0125C40.0431 15.8135 39.931 15.5436 39.931 15.2622L39.9345 7.92417C39.9345 7.65031 40.0429 7.38767 40.2359 7.19403C40.4289 7.00038 40.6906 6.89159 40.9635 6.89159L48.2661 6.88804C49.0539 6.88804 49.4477 7.2831 49.4477 8.0732L49.4406 11.8806C49.4406 12.1422 49.3363 12.3932 49.1507 12.5781C48.965 12.7631 48.7132 12.8671 48.4506 12.8671H42.6952ZM46.8574 9.54224C46.8574 9.50553 46.8428 9.47033 46.8169 9.44438C46.7909 9.41843 46.7557 9.40385 46.719 9.40385H42.6668C42.6301 9.40385 42.5949 9.41843 42.5689 9.44438C42.543 9.47033 42.5284 9.50553 42.5284 9.54224V10.2235C42.5284 10.2417 42.532 10.2597 42.5389 10.2765C42.5459 10.2933 42.5561 10.3085 42.5689 10.3214C42.5818 10.3342 42.597 10.3444 42.6138 10.3514C42.6306 10.3583 42.6486 10.3619 42.6668 10.3619H46.719C46.7372 10.3619 46.7552 10.3583 46.772 10.3514C46.7888 10.3444 46.804 10.3342 46.8169 10.3214C46.8297 10.3085 46.8399 10.2933 46.8469 10.2765C46.8538 10.2597 46.8574 10.2417 46.8574 10.2235V9.54224ZM58.741 12.8705L64.4184 12.8634C64.539 12.8634 64.5982 12.9249 64.5958 13.048L64.5852 13.6441C64.5852 13.7529 64.5296 13.8073 64.4184 13.8073L60.5045 13.8109C60.4405 13.8109 60.3791 13.7854 60.3339 13.7402C60.2886 13.6949 60.2632 13.6336 60.2632 13.5696V13.4099C60.2632 13.2869 60.2017 13.2254 60.0787 13.2254H57.8432C57.7297 13.2254 57.6729 13.2833 57.6729 13.3992L57.6764 15.3509C57.6764 15.6087 57.7789 15.856 57.9612 16.0384C58.1435 16.2207 58.3908 16.3231 58.6487 16.3231H66.1961C66.4577 16.3231 66.7087 16.2192 66.8937 16.0342C67.0786 15.8492 67.1826 15.5983 67.1826 15.3367L67.1861 11.3625C67.1861 11.0996 67.0816 10.8474 66.8953 10.6612C66.7091 10.475 66.4564 10.3699 66.1926 10.3689L60.4974 10.3618C60.3247 10.3618 60.2431 10.2755 60.2526 10.1028L60.281 9.60248C60.2881 9.47 60.3567 9.40377 60.4868 9.40377H64.4148C64.5355 9.40377 64.5946 9.46409 64.5923 9.58473L64.5887 9.74441C64.5878 9.77778 64.5936 9.81101 64.6058 9.84216C64.618 9.87331 64.6363 9.90176 64.6598 9.92587C64.6832 9.94997 64.7113 9.96924 64.7423 9.98256C64.7734 9.99587 64.8068 10.003 64.8406 10.0034L66.7355 10.0141C67.0217 10.0141 67.1707 9.87097 67.1826 9.58473C67.211 8.90817 67.198 8.30731 67.1435 7.78215C67.082 7.18839 66.7532 6.89151 66.1571 6.89151H58.7055C58.4326 6.89151 58.1708 7.0003 57.9778 7.19394C57.7849 7.38759 57.6764 7.65023 57.6764 7.92409L57.6729 11.806C57.6729 11.9461 57.7006 12.0848 57.7543 12.2142C57.808 12.3436 57.8867 12.4611 57.9859 12.56C58.0852 12.6589 58.2029 12.7372 58.3325 12.7905C58.4621 12.8438 58.6009 12.871 58.741 12.8705ZM78.9022 15.2644C78.9024 15.4023 78.8755 15.5389 78.8229 15.6665C78.7704 15.794 78.6932 15.9099 78.5959 16.0076C78.4985 16.1053 78.3829 16.1829 78.2555 16.2359C78.1282 16.2889 77.9916 16.3163 77.8537 16.3165L70.4447 16.3295C70.3068 16.3297 70.1701 16.3028 70.0426 16.2502C69.9151 16.1977 69.7992 16.1205 69.7015 16.0231C69.6038 15.9258 69.5262 15.8101 69.4732 15.6828C69.4202 15.5554 69.3928 15.4189 69.3925 15.281L69.3797 7.95001C69.3795 7.81208 69.4064 7.67545 69.459 7.54793C69.5115 7.4204 69.5887 7.30448 69.6861 7.20678C69.7834 7.10907 69.8991 7.03151 70.0264 6.9785C70.1538 6.92549 70.2903 6.89808 70.4282 6.89784L77.8372 6.88492C77.9752 6.88468 78.1118 6.91161 78.2393 6.96417C78.3669 7.01673 78.4828 7.09389 78.5805 7.19125C78.6782 7.28861 78.7558 7.40426 78.8088 7.5316C78.8618 7.65894 78.8892 7.79547 78.8894 7.9334L78.9022 15.2644ZM76.3055 9.55292C76.3055 9.53381 76.3018 9.51488 76.2945 9.49722C76.2873 9.47955 76.2766 9.46349 76.2631 9.44995C76.2496 9.43642 76.2336 9.42567 76.2159 9.41833C76.1983 9.41098 76.1794 9.40719 76.1603 9.40715L72.1222 9.40013C72.1031 9.4001 72.0842 9.40383 72.0665 9.41111C72.0489 9.41839 72.0328 9.42908 72.0193 9.44256C72.0057 9.45605 71.995 9.47207 71.9877 9.48971C71.9803 9.50735 71.9765 9.52626 71.9765 9.54536L71.9693 13.6615C71.9693 13.6806 71.973 13.6995 71.9803 13.7172C71.9876 13.7348 71.9983 13.7509 72.0117 13.7644C72.0252 13.778 72.0412 13.7887 72.0589 13.7961C72.0765 13.8034 72.0954 13.8072 72.1146 13.8072L76.1526 13.8143C76.1717 13.8143 76.1906 13.8106 76.2083 13.8033C76.226 13.796 76.242 13.7853 76.2556 13.7718C76.2691 13.7583 76.2798 13.7423 76.2872 13.7247C76.2945 13.707 76.2983 13.6881 76.2983 13.669L76.3055 9.55292ZM88.9945 13.8251C88.765 13.8228 88.6503 13.7069 88.6503 13.4774L88.6539 7.10094C88.6539 6.95901 88.5817 6.88804 88.4374 6.88804L86.3332 6.90224C86.1534 6.90224 86.0635 6.99331 86.0635 7.17546L86.06 15.3048C86.06 15.5749 86.1673 15.8339 86.3583 16.0249C86.5493 16.2159 86.8083 16.3232 87.0784 16.3232H91.3648C91.4949 16.3232 91.6168 16.2901 91.7303 16.2238C91.8533 16.1529 91.9799 16.1434 92.11 16.1955C92.5769 16.3838 93.2743 16.3621 93.8876 16.343C94.118 16.3358 94.3365 16.329 94.5264 16.3338C94.7133 16.3386 94.8068 16.2475 94.8068 16.0606L94.8139 7.06901C94.8139 6.94836 94.7535 6.88804 94.6329 6.88804L92.4222 6.89869C92.2779 6.90105 92.2058 6.97439 92.2058 7.11869L92.2023 12.6932C92.2023 13.3674 91.8663 13.727 91.1945 13.7719C90.5534 13.8145 89.8201 13.8322 88.9945 13.8251ZM105.534 6.89878H103.248C103.164 6.89878 103.096 6.9671 103.096 7.05136V16.1707C103.096 16.255 103.164 16.3233 103.248 16.3233H105.534C105.618 16.3233 105.686 16.255 105.686 16.1707V7.05136C105.686 6.9671 105.618 6.89878 105.534 6.89878ZM117.145 15.6643C117.198 15.5363 117.225 15.3992 117.225 15.2608L117.212 7.93695C117.212 7.79855 117.184 7.66156 117.131 7.53379C117.078 7.40602 117 7.28998 116.902 7.19229C116.804 7.0946 116.688 7.01718 116.56 6.96444C116.432 6.9117 116.295 6.88468 116.156 6.88492L108.754 6.89784C108.616 6.89808 108.479 6.92558 108.351 6.97877C108.223 7.03195 108.107 7.10978 108.01 7.20782C107.912 7.30585 107.835 7.42216 107.782 7.55012C107.729 7.67807 107.702 7.81516 107.702 7.95356L107.715 15.2774C107.715 15.4158 107.743 15.5528 107.796 15.6806C107.849 15.8084 107.927 15.9244 108.025 16.0221C108.123 16.1198 108.239 16.1972 108.367 16.2499C108.495 16.3027 108.632 16.3297 108.771 16.3295L116.173 16.3165C116.311 16.3163 116.448 16.2888 116.576 16.2356C116.704 16.1824 116.82 16.1046 116.917 16.0066C117.015 15.9085 117.093 15.7922 117.145 15.6643ZM114.617 9.49722C114.624 9.51488 114.628 9.53381 114.628 9.55292L114.621 13.669C114.621 13.6881 114.617 13.707 114.61 13.7247C114.602 13.7423 114.592 13.7583 114.578 13.7718C114.565 13.7853 114.549 13.796 114.531 13.8033C114.513 13.8106 114.494 13.8143 114.475 13.8143L110.437 13.8072C110.418 13.8072 110.399 13.8034 110.381 13.7961C110.364 13.7887 110.348 13.778 110.334 13.7644C110.321 13.7509 110.31 13.7348 110.303 13.7172C110.296 13.6995 110.292 13.6806 110.292 13.6615L110.299 9.54536C110.299 9.52626 110.303 9.50735 110.31 9.48971C110.318 9.47207 110.328 9.45605 110.342 9.44256C110.355 9.42908 110.371 9.41839 110.389 9.41111C110.407 9.40383 110.426 9.4001 110.445 9.40013L114.483 9.40715C114.502 9.40719 114.521 9.41098 114.539 9.41833C114.556 9.42567 114.572 9.43642 114.586 9.44995C114.599 9.46349 114.61 9.47955 114.617 9.49722ZM125.561 9.77284C125.561 9.52682 125.438 9.40381 125.192 9.40381H123.148C122.386 9.40381 122.005 9.78467 122.005 10.5464V16.2238C122.005 16.29 121.972 16.3232 121.906 16.3232L119.5 16.3196C119.446 16.3196 119.418 16.2912 119.418 16.2345V7.16478C119.418 7.09976 119.443 7.03724 119.487 6.99029C119.532 6.94334 119.592 6.91559 119.656 6.91284C120.465 6.88445 121.222 6.89747 121.927 6.95187C122.183 6.9708 122.439 6.97198 122.697 6.95542C124.081 6.8608 125.589 6.84779 127.221 6.91639C127.476 6.92648 127.717 7.03522 127.894 7.2198C128.07 7.40438 128.169 7.65045 128.169 7.90639L128.162 16.1174C128.162 16.2546 128.093 16.3232 127.956 16.3232H125.72C125.612 16.3232 125.557 16.2676 125.557 16.1564L125.561 9.77284ZM131.128 12.8705L136.805 12.8634C136.926 12.8634 136.985 12.9238 136.983 13.0444L136.979 13.5909C136.977 13.7352 136.902 13.8073 136.756 13.8073L132.895 13.8144C132.831 13.8144 132.77 13.789 132.725 13.7437C132.679 13.6985 132.654 13.6371 132.654 13.5731V13.4099C132.654 13.2869 132.591 13.2254 132.466 13.2254H130.23C130.117 13.2254 130.06 13.2833 130.06 13.3992L130.064 15.3509C130.064 15.6087 130.166 15.856 130.348 16.0384C130.531 16.2207 130.778 16.3231 131.036 16.3231H138.583C138.844 16.3231 139.095 16.2193 139.279 16.0344C139.464 15.8495 139.569 15.5986 139.57 15.3367L139.573 11.3625C139.573 11.0996 139.469 10.8474 139.282 10.6612C139.096 10.475 138.843 10.3699 138.58 10.3689L132.885 10.3618C132.851 10.3619 132.818 10.3551 132.787 10.3419C132.757 10.3288 132.729 10.3094 132.706 10.2852C132.683 10.2609 132.666 10.2322 132.654 10.2009C132.643 10.1695 132.638 10.1361 132.64 10.1028L132.668 9.60248C132.671 9.54885 132.694 9.49832 132.732 9.46134C132.77 9.42436 132.821 9.40375 132.874 9.40377H136.798C136.94 9.40377 136.998 9.47237 136.972 9.60957C136.963 9.65689 136.963 9.70538 136.972 9.75506C137.008 9.91828 137.108 9.9999 137.274 9.9999L139.123 10.0141C139.404 10.0165 139.552 9.87688 139.566 9.59538C139.606 8.84549 139.585 8.19258 139.502 7.63667C139.472 7.42976 139.368 7.24072 139.21 7.10396C139.051 6.9672 138.849 6.89181 138.64 6.89151H131.096C130.961 6.89151 130.826 6.91813 130.701 6.96984C130.576 7.02155 130.462 7.09735 130.366 7.1929C130.27 7.28846 130.194 7.4019 130.142 7.52675C130.09 7.65159 130.064 7.78541 130.064 7.92054L130.06 11.8025C130.06 12.0857 130.173 12.3574 130.373 12.5577C130.573 12.758 130.845 12.8705 131.128 12.8705Z" fill="#00AB55"/>
</svg>

<svg xmlns="http://www.w3.org/2000/svg" width="140" height="22" fill="none"><path fill="#00AB55" fill-rule="evenodd" d="M13.613 6.31c-.003-.055.023-.082.078-.082 2.647-.021 5.18.401 7.597 1.267a.142.142 0 0 0 .177-.185C19.765 3.031 15.813.235 11.061.25c-2.306.004-4.5.787-6.578 2.348a.551.551 0 0 0-.213.532c.437 2.57 1.343 5.03 2.718 7.381a.21.21 0 0 1-.071.284l-.731.443a.219.219 0 0 1-.305-.074c-1.342-2.26-2.215-4.586-2.62-6.98-.035-.217-.12-.24-.255-.067-2.604 3.335-3.3 7.292-1.635 11.088 1.213 2.773 3.256 4.735 6.128 5.887a.393.393 0 0 0 .4-.064c2.172-1.807 3.886-3.827 5.142-6.06.062-.109.15-.134.263-.075l.791.412c.12.064.147.155.078.273-1.232 2.177-2.856 4.12-4.872 5.83a.128.128 0 0 0 .068.224c4.975.582 8.717-1.18 11.227-5.287 1.367-2.236 1.79-4.658 1.267-7.268a.23.23 0 0 0-.146-.17 21.592 21.592 0 0 0-7.952-1.362.128.128 0 0 1-.094-.037.135.135 0 0 1-.04-.095l-.018-1.103Zm18.018.674-.21.106c-.172.09-.257.038-.255-.156l.008-3.445c0-.031-.016-.046-.047-.046l-2.427.014c-.08 0-.12.04-.12.12l-.004 12.548c0 .122.062.186.185.191.759.026 1.522.014 2.288-.035.246-.017.491-.02.735-.011a78.18 78.18 0 0 0 5.358.032.97.97 0 0 0 .944-.965l.003-7.445a.999.999 0 0 0-1.004-1h-5.074a.811.811 0 0 0-.38.092Zm-.454 3.534c.005-.48.216-.816.635-1.008.155-.07.323-.106.494-.106h3.012c.047 0 .092.019.126.053.033.034.051.08.051.128v3.974a.256.256 0 0 1-.255.256l-3.843-.008a.23.23 0 0 1-.23-.23c-.005-1.01-.002-2.03.01-3.059ZM51.45 9.4l-.703.004a.18.18 0 0 1-.18-.181V7.14c0-.154.076-.233.23-.238l.703-.014c.137-.002.206-.072.206-.21l.007-3.125a.103.103 0 0 1 .099-.103l2.392-.007a.1.1 0 0 1 .099.099l.004 3.144a.202.202 0 0 0 .202.202l1.135.004c.194 0 .291.097.291.29l-.007 1.938c0 .075-.03.146-.083.198a.278.278 0 0 1-.197.082l-1.082.007c-.173 0-.26.088-.26.263l-.003 3.935c0 .137.069.205.206.202l1.1-.003c.22 0 .33.11.33.33l-.015 1.824c-.002.243-.125.365-.369.365h-2.863a.981.981 0 0 1-.983-.986V9.659c0-.172-.086-.259-.259-.259Zm32.422 4.39a.904.904 0 0 1-.327.032c-.144-.012-.216-.09-.216-.231V3.556c0-.076-.038-.113-.114-.113l-2.331.003c-.095.002-.142.051-.142.146l-.004 11.755a.972.972 0 0 0 .973.973l2.242.003c.138.003.206-.065.206-.202l.025-2.094c.002-.217-.102-.296-.312-.237ZM97.223 9.4l-.614.004c-.18.002-.27-.088-.27-.27V7.14c0-.154.078-.233.231-.238l.703-.014c.137-.005.206-.076.206-.213l.007-3.122c0-.028.01-.054.029-.073a.098.098 0 0 1 .07-.03l2.392-.007a.1.1 0 0 1 .07.029.098.098 0 0 1 .029.07l.004 3.098c0 .163.081.245.245.245l1.096.007c.192.002.286.099.284.29l-.007 1.938c0 .187-.094.28-.281.28l-1.078.007c-.173 0-.259.088-.259.263l-.004 3.935c0 .137.069.206.206.206l1.125-.007c.203 0 .305.102.305.305l-.018 1.849c-.002.243-.125.365-.369.365h-2.814a1.034 1.034 0 0 1-1.032-1.029l.003-5.635c0-.172-.086-.259-.259-.259Zm6.15-5.954h2.036c.153 0 .277.124.277.277v1.944a.277.277 0 0 1-.277.277h-2.036a.277.277 0 0 1-.277-.277V3.723c0-.153.124-.277.277-.277Zm-60.678 9.421a.163.163 0 0 0-.163.156l-.021.625a.162.162 0 0 0 .043.113.154.154 0 0 0 .11.046l6.642.004c.094 0 .14.046.138.138l-.01 2.19a.185.185 0 0 1-.185.184h-8.254a1.066 1.066 0 0 1-1.064-1.06l.004-7.339a1.034 1.034 0 0 1 1.029-1.032l7.302-.004c.788 0 1.182.395 1.182 1.185l-.007 3.808a.985.985 0 0 1-.99.986h-5.756Zm4.162-3.325a.139.139 0 0 0-.138-.138h-4.052a.139.139 0 0 0-.139.138v.681a.14.14 0 0 0 .086.128.14.14 0 0 0 .053.01h4.052a.14.14 0 0 0 .128-.085.14.14 0 0 0 .01-.053v-.68Zm11.884 3.329 5.677-.008c.121 0 .18.062.178.185l-.01.596c0 .109-.056.163-.168.163l-3.914.004a.241.241 0 0 1-.24-.241v-.16c0-.123-.062-.185-.185-.185h-2.236c-.113 0-.17.058-.17.174l.003 1.952a.973.973 0 0 0 .973.972h7.547a.987.987 0 0 0 .987-.986l.003-3.974a.991.991 0 0 0-.993-.994l-5.696-.007c-.172 0-.254-.087-.244-.26l.028-.5c.007-.132.076-.198.206-.198h3.928c.12 0 .18.06.177.18l-.003.16a.25.25 0 0 0 .153.239c.031.013.065.02.099.02l1.895.011c.286 0 .435-.143.447-.43.028-.676.015-1.277-.04-1.802-.061-.594-.39-.89-.986-.89h-7.451a1.027 1.027 0 0 0-1.03 1.032l-.003 3.882a1.065 1.065 0 0 0 1.068 1.065Zm20.161 2.393a1.05 1.05 0 0 1-1.048 1.053l-7.41.012a1.05 1.05 0 0 1-1.052-1.048L69.38 7.95a1.05 1.05 0 0 1 1.048-1.052l7.41-.013a1.05 1.05 0 0 1 1.051 1.048l.013 7.331Zm-2.597-5.711a.146.146 0 0 0-.145-.146L72.122 9.4a.146.146 0 0 0-.145.145l-.008 4.117a.146.146 0 0 0 .146.145l4.038.007a.146.146 0 0 0 .145-.145l.007-4.116Zm12.69 4.272c-.23-.002-.345-.118-.345-.348l.004-6.376c0-.142-.072-.213-.217-.213l-2.104.014c-.18 0-.27.091-.27.273l-.003 8.13a1.018 1.018 0 0 0 1.018 1.018h4.287c.13 0 .252-.033.365-.1.123-.07.25-.08.38-.027.467.188 1.164.166 1.778.147.23-.007.448-.014.638-.01.187.006.28-.085.28-.272l.008-8.992c0-.12-.06-.181-.181-.181l-2.21.01c-.145.003-.217.076-.217.22l-.004 5.575c0 .674-.336 1.034-1.007 1.079-.642.043-1.375.06-2.2.053ZM105.534 6.9h-2.286a.152.152 0 0 0-.152.152v9.12c0 .084.068.152.152.152h2.286a.152.152 0 0 0 .152-.152V7.05a.152.152 0 0 0-.152-.152Zm11.611 8.765c.053-.128.08-.265.08-.403l-.013-7.324a1.053 1.053 0 0 0-1.056-1.052l-7.402.013a1.055 1.055 0 0 0-1.052 1.056l.013 7.323a1.053 1.053 0 0 0 1.056 1.053l7.402-.013a1.054 1.054 0 0 0 .972-.653Zm-2.528-6.167a.152.152 0 0 1 .011.056l-.007 4.116c0 .02-.004.038-.011.056a.15.15 0 0 1-.079.078.149.149 0 0 1-.056.011l-4.038-.007a.15.15 0 0 1-.056-.01.148.148 0 0 1-.089-.135l.007-4.117c0-.019.004-.038.011-.055a.15.15 0 0 1 .079-.079.149.149 0 0 1 .056-.01l4.038.006a.149.149 0 0 1 .103.043c.013.013.024.03.031.047Zm10.944.276c0-.246-.123-.37-.369-.37h-2.044c-.762 0-1.143.382-1.143 1.143v5.678c0 .066-.033.1-.099.1l-2.406-.004c-.054 0-.082-.029-.082-.085v-9.07a.249.249 0 0 1 .238-.252 20.328 20.328 0 0 1 2.271.039c.256.019.512.02.77.003a41.223 41.223 0 0 1 4.524-.039.986.986 0 0 1 .948.99l-.007 8.211c0 .138-.069.206-.206.206h-2.236c-.108 0-.163-.055-.163-.167l.004-6.383Zm5.567 3.098 5.677-.008c.121 0 .18.06.178.181l-.004.547c-.002.144-.077.216-.223.216l-3.861.007a.24.24 0 0 1-.17-.07.238.238 0 0 1-.071-.17v-.164c0-.123-.063-.185-.188-.185h-2.236c-.113 0-.17.058-.17.174l.004 1.952a.973.973 0 0 0 .972.972h7.547a.992.992 0 0 0 .987-.986l.003-3.974a.999.999 0 0 0-.993-.994l-5.695-.007a.247.247 0 0 1-.179-.077.253.253 0 0 1-.052-.084.252.252 0 0 1-.014-.098l.028-.5a.214.214 0 0 1 .064-.142.204.204 0 0 1 .142-.057h3.924c.142 0 .2.068.174.206a.395.395 0 0 0 0 .145c.036.163.136.245.302.245l1.849.014c.281.003.429-.137.443-.419.04-.75.019-1.402-.064-1.958a.87.87 0 0 0-.862-.745h-7.544a1.036 1.036 0 0 0-.954.635 1.023 1.023 0 0 0-.078.394l-.004 3.881a1.07 1.07 0 0 0 1.068 1.069Z" clip-rule="evenodd"/></svg>
